dist/svgs/devui-icons/op/preview-forbidden.svg

<?xml version="1.0" encoding="UTF-8"?>
<svg width="16px" height="16px" viewBox="0 0 16 16" version="1.1" xmlns="http://www.w3.org/2000/svg" xmlns:xlink="http://www.w3.org/1999/xlink">
    <title>操作/禁止查看</title>
    <desc>Created with Sketch.</desc>
    <g id="操作/禁止查看" stroke="none" stroke-width="1" fill="none" fill-rule="evenodd">
        <path d="M13.0363045,11.622091 L15.0710678,13.6568542 L14.363961,14.363961 L1.63603897,1.63603897 L2.34314575,0.928932188 L4.5542756,3.14006203 C5.71353731,2.38002068 6.86211211,2 8,2 C10.6104228,2 13.2770895,4 16,8 C15.0121015,9.48184774 14.024203,10.6892114 13.0363045,11.622091 L13.0363045,11.622091 Z M11.4461809,10.0319673 C11.7980706,9.43645409 12,8.74180862 12,8 C12,5.790861 10.209139,4 8,4 C7.25819138,4 6.56354591,4.20192939 5.96803265,4.55381909 L7.4819568,6.06774324 C7.64718343,6.02355725 7.82084067,6 8,6 C9.1045695,6 10,6.8954305 10,8 C10,8.17915933 9.97644275,8.35281657 9.93225676,8.5180432 L11.4461809,10.0319673 L11.4461809,10.0319673 Z M2.98277323,4.39698679 L4.55381909,5.96803265 C4.20192939,6.56354591 4,7.25819138 4,8 C4,10.209139 5.790861,12 8,12 C8.74180862,12 9.43645409,11.7980706 10.0319673,11.4461809 L11.4620916,12.8763052 C10.3080611,13.6254351 9.15403053,14 8,14 C5.33333333,14 2.66666667,12 1.13686838e-13,8 C1.00187209,6.52823353 1.99612984,5.32722913 2.98277323,4.39698679 L2.98277323,4.39698679 Z M6.06774324,7.4819568 L8.5180432,9.93225676 C8.35281657,9.97644275 8.17915933,10 8,10 C6.8954305,10 6,9.1045695 6,8 C6,7.82084067 6.02355725,7.64718343 6.06774324,7.4819568 L6.06774324,7.4819568 Z" id="形状" fill="#293040"></path>
    </g>
</svg>

<svg xmlns="http://www.w3.org/2000/svg" viewBox="0 0 16 16"><path fill-rule="evenodd" d="M13.036 11.622l2.035 2.035-.707.707L1.636 1.636l.707-.707L4.554 3.14C5.714 2.38 6.862 2 8 2c2.61 0 5.277 2 8 6-.988 1.482-1.976 2.69-2.964 3.622zm-1.59-1.59a4 4 0 00-5.478-5.478l1.514 1.514a2.003 2.003 0 012.45 2.45l1.514 1.514zM2.983 4.397l1.57 1.571a4 4 0 005.478 5.478l1.431 1.43C10.308 13.626 9.154 14 8 14c-2.667 0-5.333-2-8-6 1.002-1.472 1.996-2.673 2.983-3.603zm3.085 3.085l2.45 2.45a2.003 2.003 0 01-2.45-2.45z"/></svg>
